svg/u1f9e7.svg

<svg viewBox="0 0 128 128" xmlns="http://www.w3.org/2000/svg">
  <path d="M90.43,8.27l8.96-3.84c0,0,1.36-0.05,1.9,0.13c0.54,0.18,4.51,2.94,4.56,11.34 c0.04,7.09,0.18,9.89-0.17,10.8c-0.13,0.33-0.58,1.4-1.54,1.96c-0.92,0.53-1.79,0.53-1.79,0.53s-0.2,90.67-0.31,91.8s-0.85,3-2.66,3 s-70.6-0.11-71.39-0.23c-0.79-0.11-2.93-0.9-3.05-4.51S29,93.75,29,93.75l67.17,3.81L90.43,8.27z" fill="#AE0D1A"/>
  <path d="M26.29,4.52c-1.18,0.23-1.8,1.03-1.74,1.82c0.05,0.76,0.56,113.87,0.45,113.94c0,0,0,0.35,0.43,0.35 c0.43,0,69.5-0.12,70.88-0.12s2.84-0.35,2.92-4.85S99.57,5.81,99.61,5.37c0.04-0.43-0.16-0.91-0.83-0.95 C98.11,4.39,27.23,4.34,26.29,4.52z" fill="#FF180A"/>
  <path d="M62.81,33.48C46.82,33.94,33.97,44.44,34.17,63.4c0.2,18.27,15.41,28.44,29.92,27.85 c14.02-0.57,27.15-10.33,27.55-29.13C92.05,43.55,76.44,33.08,62.81,33.48z M62.42,86.41c-12.44,0.1-22.97-9.96-23.41-22.52 C38.42,46.91,50.47,38.81,63.7,38.51s23.5,10.67,23.31,24C86.81,75.84,76.15,86.3,62.42,86.41z" fill="#FBBC01"/>
  <path d="M50.62,45.25c-0.57,0.49-0.65,2.38,1.27,4.81c1.06,1.34,2.05,1.87,2.9,1.91 c1.48,0.07,3.32-2.19,3.04-3.25c-0.33-1.25-2.12-2.47-3.82-3.18C52.74,45,51.2,44.74,50.62,45.25z" fill="#FBBC01"/>
  <path d="M61.33,48.31c-0.44,1.16-0.16,3.45,4.2,3.57c4.36,0.12,7.61-0.83,9.24-1.63 c1.63-0.79,2.81-3.01,1.47-4.4c-1.35-1.39-4.4,0.83-7.93,1.27C64.78,47.56,61.89,46.84,61.33,48.31z" fill="#FBBC01"/>
  <path d="M76.89,52.22c-0.99-0.03-5.12,0.3-8.54,0.49c-2.47,0.13-5.92,0.28-6.58,0.78 c-0.97,0.73-0.66,1.53,0.23,4.05c0.88,2.52,1.21,3.75,1.65,4.03c0.81,0.51,11.17-0.14,11.97-0.59c0.52-0.29,0.97-2.39,1.46-4.22 c0.15-0.56,1.25-1.98,1.33-2.26C78.64,53.69,77.88,52.24,76.89,52.22z M72.4,58.66c-0.25,0.09-5.34,0.6-5.59,0.48 c-0.23-0.11-1.21-3.16-0.94-3.29c0.23-0.11,6.43-0.36,7.07-0.31C73.47,55.57,72.69,58.55,72.4,58.66z" fill="#FBBC01"/>
  <path d="M60.19,65.54c0,0-2.01-0.37-3.16-1.52c-1.03-1.03-1.78-2.34-1.78-2.34s4.54-4.54,3.45-7.53 c-1.19-3.27-4.29-1.33-6.7-0.83c-4.6,0.95-7.97,0.48-8.68,1.43c-0.67,0.9-0.68,4.22,2.06,4.68c2.12,0.35,3.53-0.43,4.56-0.91 c0.53-0.25,1.59-0.83,1.67-0.95c0.08-0.12-0.63,2.1-3.85,5.43c-3.49,3.61-5.71,5.43-6.14,5.91c-0.44,0.48-1.19,1.94,0.91,2.18 s4.12-1.63,5.39-2.62c1.27-0.99,2.46-2.34,2.46-2.34s-0.08,1.78-0.28,3.77c-0.2,1.98-0.61,5.02-0.71,6.46 c-0.12,1.59-0.12,4.12,2.66,4c3.25-0.14,2.84-2.93,2.81-4.52c-0.04-2.34-0.2-5.35-0.24-6.07c-0.04-0.71-0.09-3.25-0.09-3.01 s1.88,2.18,3.22,2.85c1.35,0.67,4.59-0.68,4.23-2.42C61.62,65.45,60.19,65.54,60.19,65.54z" fill="#FBBC01"/>
  <path d="M59.38,63.57c-0.02,0.81,2.43,10.7,2.64,11c0.21,0.3,0.13,1.25,2.1,0.68 c0.73-0.21-0.13-8.46-0.23-9.83c-0.2-2.83-0.95-2.02-2.34-2.54C60.15,62.36,59.39,63.02,59.38,63.57z" fill="#FBBC01"/>
  <path d="M61.72,62.97c0,0,5.96,0.14,9.19,0.07c1.98-0.04,3.92-0.21,4.77-0.36c0.85-0.15,2.12-0.44,3.22-0.66 c0.81-0.16,2.63,0.28,2.36,2.37c-0.15,1.17-0.7,1.43-0.95,1.79c-0.51,0.72-1.3,6.8-1.54,7.15c-0.21,0.31-3.25-0.07-3.25-0.07 s1.33-6.21,1.4-6.56c0.27-1.29-0.75-1.17-0.75-1.17l-13.38,0.27L61.72,62.97z" fill="#FBBC01"/>
  <path d="M62.8,72.73c0,0,12.43-0.27,13.29-0.31c0.86-0.04,0.54-1.02,1.1-1.05c0.57-0.03,1.37,0.26,1.56,0.91 s0.11,2.88-1.68,3.01c-0.63,0.05-13.99,0.13-13.99,0.13L62.8,72.73z" fill="#FBBC01"/>
  <path d="M68.44,64.45c0.17,0.77,0.35,8.84,0.35,8.84l2.83-0.07l0.56-8.62L68.44,64.45z" fill="#FBBC01"/>
  <path d="M62.3,68.21c0,0,3.18,0.02,8.18-0.04c3.88-0.05,7.42-0.18,7.42-0.18s-0.14,1.98-0.39,1.9 c-0.13-0.04-3.48,0.06-7.22,0.14c-3.83,0.08-7.68,0.27-7.68,0.27L62.3,68.21z" fill="#FBBC01"/>
</svg>

<svg viewBox="0 0 128 128" xmlns="http://www.w3.org/2000/svg">
  <defs/>
  <path d="M90.43,8.27 L99.39,4.43 C99.39,4.43 100.75,4.38 101.29,4.56 C101.83,4.74 105.8,7.5 105.85,15.9 C105.89,22.99 106.03,25.79 105.68,26.7 C105.55,27.03 105.1,28.1 104.14,28.66 C103.22,29.19 102.35,29.19 102.35,29.19 C102.35,29.19 102.15,119.86 102.04,120.99 C101.93,122.12 101.19,123.99 99.38,123.99 C97.57,123.99 28.78,123.88 27.99,123.76 C27.2,123.65 25.06,122.86 24.94,119.25 C24.82,115.64 29,93.75 29,93.75 L96.17,97.56 L90.43,8.27 Z" fill="#AE0D1A"/>
  <path d="M26.29,4.52 C25.11,4.75 24.49,5.55 24.55,6.34 C24.6,7.1 25.11,120.21 25,120.28 C25,120.28 25,120.63 25.43,120.63 C25.86,120.63 94.93,120.51 96.31,120.51 C97.69,120.51 99.15,120.16 99.23,115.66 C99.31,111.16 99.57,5.81 99.61,5.37 C99.65,4.94 99.45,4.46 98.78,4.42 C98.11,4.39 27.23,4.34 26.29,4.52 Z" fill="#FF180A"/>
  <path d="M62.81,33.48 C46.82,33.94 33.97,44.44 34.17,63.4 C34.37,81.67 49.58,91.84 64.09,91.25 C78.11,90.68 91.24,80.92 91.64,62.12 C92.05,43.55 76.44,33.08 62.81,33.48 Z M62.42,86.41 C49.98,86.51 39.45,76.45 39.01,63.89 C38.42,46.91 50.47,38.81 63.7,38.51 C76.93,38.21 87.2,49.18 87.01,62.51 C86.81,75.84 76.15,86.3 62.42,86.41 Z" fill="#FBBC01"/>
  <path d="M50.62,45.25 C50.05,45.74 49.97,47.63 51.89,50.06 C52.95,51.4 53.94,51.93 54.79,51.97 C56.27,52.04 58.11,49.78 57.83,48.72 C57.5,47.47 55.71,46.25 54.01,45.54 C52.74,45 51.2,44.74 50.62,45.25 Z" fill="#FBBC01"/>
  <path d="M61.33,48.31 C60.89,49.47 61.17,51.76 65.53,51.88 C69.89,52 73.14,51.05 74.77,50.25 C76.4,49.46 77.58,47.24 76.24,45.85 C74.89,44.46 71.84,46.68 68.31,47.12 C64.78,47.56 61.89,46.84 61.33,48.31 Z" fill="#FBBC01"/>
  <path d="M76.89,52.22 C75.9,52.19 71.77,52.52 68.35,52.71 C65.88,52.84 62.43,52.99 61.77,53.49 C60.8,54.22 61.11,55.02 62,57.54 C62.88,60.06 63.21,61.29 63.65,61.57 C64.46,62.08 74.82,61.43 75.62,60.98 C76.14,60.69 76.59,58.59 77.08,56.76 C77.23,56.2 78.33,54.78 78.41,54.5 C78.64,53.69 77.88,52.24 76.89,52.22 Z M72.4,58.66 C72.15,58.75 67.06,59.26 66.81,59.14 C66.58,59.03 65.6,55.98 65.87,55.85 C66.1,55.74 72.3,55.49 72.94,55.54 C73.47,55.57 72.69,58.55 72.4,58.66 Z" fill="#FBBC01"/>
  <path d="M60.19,65.54 C60.19,65.54 58.18,65.17 57.03,64.02 C56,62.99 55.25,61.68 55.25,61.68 C55.25,61.68 59.79,57.14 58.7,54.15 C57.51,50.88 54.41,52.82 52,53.32 C47.4,54.27 44.03,53.8 43.32,54.75 C42.65,55.65 42.64,58.97 45.38,59.43 C47.5,59.78 48.91,59 49.94,58.52 C50.47,58.27 51.53,57.69 51.61,57.57 C51.69,57.45 50.98,59.67 47.76,63 C44.27,66.61 42.05,68.43 41.62,68.91 C41.18,69.39 40.43,70.85 42.53,71.09 C44.63,71.33 46.65,69.46 47.92,68.47 C49.19,67.48 50.38,66.13 50.38,66.13 C50.38,66.13 50.3,67.91 50.1,69.9 C49.9,71.88 49.49,74.92 49.39,76.36 C49.27,77.95 49.27,80.48 52.05,80.36 C55.3,80.22 54.89,77.43 54.86,75.84 C54.82,73.5 54.66,70.49 54.62,69.77 C54.58,69.06 54.53,66.52 54.53,66.76 C54.53,67 56.41,68.94 57.75,69.61 C59.1,70.28 62.34,68.93 61.98,67.19 C61.62,65.45 60.19,65.54 60.19,65.54 Z" fill="#FBBC01"/>
  <path d="M59.38,63.57 C59.36,64.38 61.81,74.27 62.02,74.57 C62.23,74.87 62.15,75.82 64.12,75.25 C64.85,75.04 63.99,66.79 63.89,65.42 C63.69,62.59 62.94,63.4 61.55,62.88 C60.15,62.36 59.39,63.02 59.38,63.57 Z" fill="#FBBC01"/>
  <path d="M61.72,62.97 C61.72,62.97 67.68,63.11 70.91,63.04 C72.89,63 74.83,62.83 75.68,62.68 C76.53,62.53 77.8,62.24 78.9,62.02 C79.71,61.86 81.53,62.3 81.26,64.39 C81.11,65.56 80.56,65.82 80.31,66.18 C79.8,66.9 79.01,72.98 78.77,73.33 C78.56,73.64 75.52,73.26 75.52,73.26 C75.52,73.26 76.85,67.05 76.92,66.7 C77.19,65.41 76.17,65.53 76.17,65.53 L62.79,65.8 L61.72,62.97 Z" fill="#FBBC01"/>
  <path d="M62.8,72.73 C62.8,72.73 75.23,72.46 76.09,72.42 C76.95,72.38 76.63,71.4 77.19,71.37 C77.76,71.34 78.56,71.63 78.75,72.28 C78.94,72.93 78.86,75.16 77.07,75.29 C76.44,75.34 63.08,75.42 63.08,75.42 L62.8,72.73 Z" fill="#FBBC01"/>
  <path d="M68.44,64.45 C68.61,65.22 68.79,73.29 68.79,73.29 L71.62,73.22 L72.18,64.6 L68.44,64.45 Z" fill="#FBBC01"/>
  <path d="M62.3,68.21 C62.3,68.21 65.48,68.23 70.48,68.17 C74.36,68.12 77.9,67.99 77.9,67.99 C77.9,67.99 77.76,69.97 77.51,69.89 C77.38,69.85 74.03,69.95 70.29,70.03 C66.46,70.11 62.61,70.3 62.61,70.3 L62.3,68.21 Z" fill="#FBBC01"/>
</svg>
